!!!!SEGMENT: pl-gd--ee-2628--005-017_stabile-annibale--il-primo-libro-de-madrigali-a-cinque-voci-da-l-aurea-terra.krn
!!!cenid: 15xx:1062
!!!COM: Stabile, Annibale
!!!COM-rismID: pe30009662
!!!CDT: ~1535-1595/04
!!!CNT: Italian
!!!GTL: Il primo libro de madrigali a cinque voci
!!!OTL: Da l’aurea terra
!!!OMV: 017
!!!PDT: 1586
!!!AGN:
!!!SMS-siglum: PL-GD
!!!SMS-shelfmark: Ee 2628
!!!SMS-variant:
!!!SMS-altvar:
!!!SMS-shelfwork: 005-017 G
!!!NIFC-rismSourceID: 1001203361
!!!NIFC-rismChildID: 990060531
!!!NIFC-islandoraID: pl-gd:66139
!!!URL-pdf-islandora: https://repozytorium.nifc.pl/islandora/object/pl-gd%3A66139/datastream/PDF/view
!!!URL-scan: https://polish.musicsources.pl/pl/lokalizacje/galeria/klocki-introligatorskie/673 @EN{Scan on Polish Music Sources Website} @PL{Skany w portalu Dziedzictwo Muzyki Polskiej w otwartym dostępie}
!!!IIIF:
!!!ONB-nifc: UWAGA: Canto: s. 78-89, Tenore: s. 233-245, Basso: s. 390-401, Quinto: s. 712-723. Dla głosu Alto proszę skorzystać z https://pbc.gda.pl/dlibra/doccontent?id=79410, str. 25-48. Uwaga: utwory podzielone wg spisu treści dostępnych na końcu ksiąg – proszę sprawdzać sąsiednie tytuły. Głos Quinto proszę umieszczać wg ambitusu (może się różnić w zależności od utworu).
!!!AIN: 1 alto 1 bass 1 soprn 1 tenor 1 vox
!!!key:
**kern	**text	**kern	**text	**kern	**text	**kern	**text	**kern	**text
*part5	*part5	*part4	*part4	*part3	*part3	*part2	*part2	*part1	*part1
*staff5	*staff5	*staff4	*staff4	*staff3	*staff3	*staff2	*staff2	*staff1	*staff1
*I"BASSO	*	*I"TENORE	*	*I"ALTO	*	*I"QVINTO	*	*I"CANTO	*
*I'B	*	*I'T	*	*I'A	*	*I'V	*	*I'S	*
*ICvox	*	*ICvox	*	*ICvox	*	*ICvox	*	*ICvox	*
*Ibass	*	*Itenor	*	*Ialto	*	*Ivox	*	*Isoprn	*
*clefF3	*	*clefC3	*	*clefC2	*	*clefC1	*	*clefG2	*
*k[]	*	*k[]	*	*k[]	*	*k[]	*	*k[]	*
*C:	*	*C:	*	*C:	*	*C:	*	*C:	*
*M2/1	*	*M2/1	*	*M2/1	*	*M2/1	*	*M2/1	*
*met(C)	*	*met(C)	*	*met(C)	*	*met(C)	*	*met(C)	*
=1-	=1-	=1-	=1-	=1-	=1-	=1-	=1-	=1-	=1-
!LO:TX:b:t=DA l'aurea terra	!	!	!	!	!	!	!	!	!
!LO:TX:a:i:t=Prima parte	!	!LO:TX:a:i:t=Prima parte.	!	!LO:TX:a:i:t=Prima parte.	!	!LO:TX:a:i:t=Prima parte	!	!LO:TX:a:i:t=Prima parte.	!
00r	.	2c/	DA	2g\	DA	2cc\	DA	2ee\	DA
.	.	4c/	l'au-	4g\	l'au-	4cc\	l'au-	4ee\	l'au-
.	.	4A/	-rea	4a\	-rea	4cc\	-rea	4ff\	-rea
.	.	2B-X/	ter-	1f	ter-	2b-X\	ter-	2dd\	ter-
.	.	4F/	ra o-	.	.	2a\	ra o-	2cc\	ra o-
.	.	2f\	ue il	.	.	.	.	.	.
=2-	=2-	=2-	=2-	=2-	=2-	=2-	=2-	=2-	=2-
.	.	.	.	2c/	-ra	4g/	ue il	1.cc	ue il
.	.	4e\	ſou-	.	.	4g/	ſou-	.	.
.	.	4f\	-ran	4r	.	4a\	-ran	.	.
.	.	4g\	pa-	4c/	o-	4e/	paſ-	.	.
.	.	2a\	-ſto-	2.f\	ue il	2f/	-to-	.	.
.	.	2g\	-re	.	.	4c/	-re	2cc\	ſou-
.	.	.	.	4e/	ſou-	2cc\	o-	.	.
=3-	=3-	=3-	=3-	=3-	=3-	=3-	=3-	=3-	=3-
0r	.	0r	.	4f\	-ran	.	.	2dd\	-ran
.	.	.	.	4g\	paſ-	4bny\	ue il	.	.
*	*	*	*	*	*	*custos:a	*	*	*
!	!	!	!	!	!	!LO:LB:g=original	!	!	!
.	.	.	.	2a\	-to-	4a\	ſou-	4cc\	pa-
.	.	.	.	.	.	4cc\	-ran	2ee\	-ſto-
.	.	.	.	1g	-re	4b\	pa-	.	.
.	.	.	.	.	.	2cc\	-ſto-	8dd\	.
.	.	.	.	.	.	.	.	8cc\	.
*	*	*	*	*	*	*	*	*custos:dd	*
!	!	!	!	!	!	!	!	!LO:LB:g=original	!
.	.	.	.	.	.	.	.	2dd\	.
.	.	.	.	.	.	4b\	.	.	.
*	*	*	*	*custos:d	*	*	*	*	*
!	!	!	!	!LO:LB:g=original	!	!	!	!	!
=4-	=4-	=4-	=4-	=4-	=4-	=4-	=4-	=4-	=4-
2r	.	2r	.	0r	.	2cc\	-re	2cc\	-re
2c\	Per	2g\	Per	.	.	2.cc\	Per	2ee\	Per
*	*	*custos:a	*	*	*	*	*	*	*
!	!	!LO:LB:g=original	!	!	!	!	!	!	!
4A\	l'a-	4a\	l'a-	.	.	.	.	4ee\	l'a-
2B-X\	-ma-	4f\	-ma-	.	.	4b-X\	l'a-	2dd\	-ma-
.	.	4d\	-ta	.	.	4g/	-ma-	.	.
4A\	-ta	4f\	ſua	.	.	4a\	-ta	4cc\	-ta
=5-	=5-	=5-	=5-	=5-	=5-	=5-	=5-	=5-	=5-
4c\	ſua	4e\	greg-	1r	.	4g/	ſua	4cc\	ſua
2G\	grag-	8d\	.	.	.	2g/	greg-	2b/	greg-
.	.	8c\	.	.	.	.	.	.	.
.	.	4d\	.	.	.	.	.	.	.
4E/	-ge	4e\	-ge	.	.	4g/	-ge	4cc\	-ge
*custos:F	*	*	*	*	*	*custos:f	*	*	*
!LO:LB:g=original	!	!	!	!	!	!LO:LB:g=original	!	!	!
4F/	diè	4c/	die	2r	.	4f/	diè	4a/	die
4A\	la	4c/	la	.	.	4e/	la	4cc\	la
2G\	vi-	2d\	vi-	2d/	Vid-	2g/	vi-	2b/	vi-
=6-	=6-	=6-	=6-	=6-	=6-	=6-	=6-	=6-	=6-
1C	-ta	2c/	-ta	2.e/	-d'io	1g	-ta	0cc	-ta
.	.	2c/	Vid-	.	.	.	.	.	.
.	.	.	.	4g\	da	.	.	.	.
*	*	*custos:A	*	*	*	*	*	*	*
!	!	!LO:LB:g=original	!	!	!	!	!	!	!
1r	.	2.A/	-d'io	2f\	man	1r	.	.	.
.	.	.	.	2e/	ce-	.	.	.	.
.	.	4c/	da	.	.	.	.	.	.
*	*	*	*	*	*	*	*	*custos:dd	*
!	!	!	!	!	!	!	!	!LO:LB:g=original	!
=7-	=7-	=7-	=7-	=7-	=7-	=7-	=7-	=7-	=7-
00r	.	2Bny/	man	2d/	-leſ-	1r	.	2r	.
.	.	2G/	ce-	1g	te eſ-	.	.	2dd\	Vid-
.	.	4c/	-leſ-	.	.	2r	.	2.ee\	-d'io
.	.	4.c/	te eſ-	.	.	.	.	.	.
.	.	.	.	2e\	-ſer	2cc\	Vid-	.	.
.	.	8c/	-ſer	.	.	.	.	.	.
.	.	4c/	ra-	.	.	.	.	4gg\	da
=8-	=8-	=8-	=8-	=8-	=8-	=8-	=8-	=8-	=8-
.	.	2d\	-pi-	2f\	ra-	2a\	-d'io	2ff\	man
.	.	2c/	-ta	1g	-pi-	2cc\	da	2ee\	ce-
.	.	1r	.	.	.	2bny\	man	2dd\	-leſ-
.	.	.	.	2c/	-ta	2cc\	ce-	2.ee\	te eſ-
*	*	*	*	*custos:a	*	*	*	*	*
!	!	!	!	!LO:LB:g=original	!	!	!	!	!
=9-	=9-	=9-	=9-	=9-	=9-	=9-	=9-	=9-	=9-
0r	.	0r	.	0r	.	4a\	-leſ-	.	.
.	.	.	.	.	.	4.a\	te eſ-	4cc\	-ſer
.	.	.	.	.	.	.	.	4ff\	ra-
.	.	.	.	.	.	8a\	-ſer	.	.
.	.	.	.	.	.	4g/	ra-	4.ee\	-pi-
.	.	.	.	.	.	2f/	-pi-	.	.
.	.	.	.	.	.	.	.	8dd\	.
.	.	.	.	.	.	.	.	4dd\	.
.	.	.	.	.	.	2e/	-ta	2ee\	-ta
=10-	=10-	=10-	=10-	=10-	=10-	=10-	=10-	=10-	=10-
2r	.	1r	.	2r	.	2r	.	2r	.
2.A\	Hu-	.	.	2.a\	Hu-	2.e/	Hu-	2.cc#X\	Hu-
.	.	2r	.	.	.	.	.	.	.
4A\	-mi-	.	.	4a\	-mi-	4e/	-mi-	4cc#\	-mi-
2A\	-le	2.A/	Hu-	2a\	-le	2e/	-le	2cc#\	-le
*	*	*	*	*	*	*custos:d	*	*	*
!	!	!	!	!	!	!LO:LB:g=original	!	!	!
=11-	=11-	=11-	=11-	=11-	=11-	=11-	=11-	=11-	=11-
1.D	diètan-	.	.	4f#X\	ſtan-	2.d/	ſtan-	1.dd	ſtan-
.	.	4A/	-mi-	4e\	.	.	.	.	.
.	.	2A/	-le	4f#\	.	.	.	.	.
.	.	.	.	4g\	.	4e/	.	.	.
.	.	1.d	ſtan-	2a\	.	2f#X/	.	.	.
2D/	-za	.	.	2a\	-za	2f#/	-za	2dd\	-za
*	*	*	*	*	*	*	*	*custos:b	*
!	!	!	!	!	!	!	!	!LO:LB:g=original	!
=12-	=12-	=12-	=12-	=12-	=12-	=12-	=12-	=12-	=12-
1.G	con	.	.	1g	con	2r	.	2.b/	con
.	.	2d\	-za	.	.	1g	con	.	.
.	.	.	.	.	.	.	.	4ccny\	ſu-
.	.	2B/	con	2d/	ſu-	.	.	2dd\	-bli-
2C/	ſu-	2c/	ſu-	1g\	-bli-	2e/	ſu-	2.ee\	me ho-
*custos:E	*	*custos:G	*	*	*	*	*	*	*
!LO:LB:g=original	!	!LO:LB:g=original	!	!	!	!	!	!	!
=13-	=13-	=13-	=13-	=13-	=13-	=13-	=13-	=13-	=13-
2.E/	-bli-	4G/	-bli-	.	.	2e/	-bli-	.	.
.	.	4G/	me ho-	.	.	.	.	4dd\	.
.	.	2.g\	-no-	2g\	me ho-	2e/	me ho-	1cc	.
4F/	me ho-	.	.	.	.	.	.	.	.
1G	-no-	.	.	1g	-no-	1d	-no-	.	.
.	.	8f\	.	.	.	.	.	.	.
.	.	8e\	.	.	.	.	.	.	.
.	.	2d\	.	.	.	.	.	2b/	-no-
=14-	=14-	=14-	=14-	=14-	=14-	=14-	=14-	=14-	=14-
2C/	-re	1e	-re	4g\	-re	1c	-re	2cc\	-re
.	.	.	.	2g\	Et	.	.	.	.
2.c\	Et	.	.	.	.	.	.	2.ee\	Et
.	.	.	.	4e/	ſo-	.	.	.	.
.	.	2r	.	2a\	-ſpin-	1r	.	.	.
4A\	ſo-	.	.	.	.	.	.	4cc\	ſo-
2d\	-ſpin-	4r	.	4a\	-to	.	.	2ff\	-ſpin-
.	.	2d\	Et	4a\	da	.	.	.	.
*	*	*	*	*custos:b#	*	*	*	*	*
!	!	!	!	!LO:LB:g=original	!	!	!	!	!
=15-	=15-	=15-	=15-	=15-	=15-	=15-	=15-	=15-	=15-
4G\	-to	.	.	2b#X\	te-	1r	.	4dd\	-to
4G\	da	4B/	ſo-	.	.	.	.	4dd\	da
2E/	te-	2e\	-ſpin-	2b#\	ma e	.	.	2gg\	te-
2A\	ma e	4c#X/	-to	4a\	da	4r	.	2ee\	ma e
.	.	4c#/	da	4e/	ſtu-	2a\	Et	.	.
2D/	da	4d\	te-	4a\	-po-	.	.	2ff\	da
.	.	4a\	ma e	4d/	-re	4fny/	ſo-	.	.
=16-	=16-	=16-	=16-	=16-	=16-	=16-	=16-	=16-	=16-
2G\	ſtu-	4g\	da	2r	.	2b-X\	-ſpin-	4ee\	ſtu-
.	.	4f\	ſtu-	.	.	.	.	4.dd\	-po-
2A\	-po-	2e\	-po-	4r	.	4a\	-to	.	.
.	.	.	.	.	.	.	.	8cc#X\	.
.	.	.	.	4e/	e	4a\	da	4cc#\	.
*	*	*	*	*	*	*	*	*custos:dd	*
!	!	!	!	!	!	!	!	!LO:LB:g=original	!
4D/	-re	4d\	-re	4fny\	da	4a\	te-	2dd\	-re
4d\	e	4f\	e	2a\	ſtu-	4f/	ma e	.	.
*	*	*custos:e	*	*	*	*custos:g	*	*	*
!	!	!LO:LB:g=original	!	!	!	!LO:LB:g=original	!	!	!
4c\	da	4e\	da	.	.	4g/	da	2r	.
4Bny\	ſtu-	4d\	ſtu-	4.g\	-po-	4g/	ſtu-	.	.
*custos:A	*	*	*	*	*	*	*	*	*
!LO:LB:g=original	!	!	!	!	!	!	!	!	!
=17-	=17-	=17-	=17-	=17-	=17-	=17-	=17-	=17-	=17-
2A\	-po-	2cny/	-po-	.	.	2a\	-po-	00r	.
.	.	.	.	8f\	.	.	.	.	.
.	.	.	.	4f\	.	.	.	.	.
2G\	-re	2d\	-re	2g\	-re	2bny\	-re	.	.
2c\	squa-	2e\	squa-	2g\	Squa-	2cc\	squa-	.	.
4G\	-dra-	4d\	-dra-	4g\	-dra-	4b\	-dra-	.	.
4.A\	-diſ-	4.c/	-diſ-	4.e/	-diſ-	4.a\	-diſ-	.	.
=18-	=18-	=18-	=18-	=18-	=18-	=18-	=18-	=18-	=18-
8E/	-si	8B/	-si	8e/	-si	8g#X/	-si	.	.
4A\	da	4c#X/	da	4f#X\	da	4a\	da	.	.
*	*	*	*	*custos:g	*	*	*	*	*
!	!	!	!	!LO:LB:g=original	!	!	!	!	!
4G\	Dio	4d\	Dio	4g\	Dio	4b\	Dio	.	.
4c\	nel	4e\	nel	4g\	nel	4cc\	nel	.	.
4B\	ciel	4d\	ciel	4g\	ciel	4dd\	ciel	.	.
4c\	gra-	4e\	gra-	4g\	gra-	4gny/	gra-	.	.
2A\	-di-	2f#X\	-di-	2c/	-di-	2cc\	-di-	.	.
=19-	=19-	=19-	=19-	=19-	=19-	=19-	=19-	=19-	=19-
1G	-ta	1g	-ta	2d/	-ta	2.b\	-ta	2r	.
.	.	.	.	4r	.	.	.	2gg\	squa-
.	.	.	.	4e/	Squa-	4g/	Squa-	.	.
1r	.	1r	.	4d/	-dra-	4a\	-dra-	4ff\	-dra-
.	.	.	.	4.c/	-diſ-	4cc\	-diſ-	4.ee\	-diſ-
*	*	*	*	*	*	*custos:a	*	*	*
!	!	!	!	!	!	!LO:LB:g=original	!	!	!
.	.	.	.	.	.	4a\	-si	.	.
.	.	.	.	8c/	-si	.	.	8ee\	-si
.	.	.	.	4d/	da	4a\	da	4ff#X\	da
=20-	=20-	=20-	=20-	=20-	=20-	=20-	=20-	=20-	=20-
0r	.	0r	.	4g\	Dio	4b\	Dio	4gg\	Dio
.	.	.	.	4cc\	nel	4ee\	nel	4gg\	nel
.	.	.	.	4bny\	ciel	4dd\	ciel	4gg\	ciel
.	.	.	.	4cc\	gra-	2ee\	gra-	4gg\	gra-
.	.	.	.	2a\	-di-	.	.	2ccny\	-di-
.	.	.	.	.	.	2cc\	-di-	.	.
.	.	.	.	2g\	-ta	.	.	2dd\	-ta
.	.	.	.	.	.	4b\	-ta	.	.
=21-	=21-	=21-	=21-	=21-	=21-	=21-	=21-	=21-	=21-
1r	.	1r	.	2g\	Ch'al-	4r	.	4b/	Ch'al-
.	.	.	.	.	.	4g/	Ch'al-	2dd\	-ber-
*	*	*	*	*custos:f#	*	*	*	*	*
!	!	!	!	!LO:LB:g=original	!	!	!	!	!
.	.	.	.	4f#X\	-ber-	4a\	-ber-	.	.
.	.	.	.	4g\	go e	4g/	go e	4b/	go e
2r	.	2r	.	2d/	queſ-	2f#X/	queſ-	2a/	queſ-
4r	.	4r	.	1g\	to e	2g/	-to	4b/	-to
*	*	*	*	*	*	*	*	*	*ij
4c\	Ch'al-	4cny/	Ch'al-	.	.	.	.	4ee\	Ch'al-
*	*	*custos:d	*	*	*	*	*	*custos:dd	*
!	!	!LO:LB:g=original	!	!	!	!	!	!LO:LB:g=original	!
=22-	=22-	=22-	=22-	=22-	=22-	=22-	=22-	=22-	=22-
4B\	-ber-	4d\	-ber-	.	.	0r	.	4dd\	-ber-
4c\	go e	4e\	go e	.	.	.	.	4cc\	go e
*custos:G	*	*	*	*	*	*	*	*	*
!LO:LB:g=original	!	!	!	!	!	!	!	!	!
2G\	queſ-	2d\	queſ-	2g\	do-	.	.	2b/	queſ-
1C	-to	4c/	-to	2.g\	-ue	.	.	4cc\	-to
*	*	*	*	*	*	*	*	*	*Xij
.	.	4e\	e	.	.	.	.	4gg\	e
.	.	4.e\	do-	.	.	.	.	4.gg\	do-
.	.	.	.	4g\	co-	.	.	.	.
.	.	8d\	-ue	.	.	.	.	8ffny\	-ue
=23-	=23-	=23-	=23-	=23-	=23-	=23-	=23-	=23-	=23-
1r	.	4c/	co-	4g\	-ſi	1r	.	4ee\	co-
.	.	4B/	ſi ar-	4g\	ar-	.	.	4dd\	ſi ar-
.	.	4A/	-di-	4a\	-di-	.	.	4cc\	-di-
.	.	8A/	-ta	8a\	-ra	.	.	8cc\	-ta
.	.	8B/	Il	8g\	Il	.	.	8b/	Il
2r	.	4c#X/	por-	4e/	por-	4r	.	4a/	por-
.	.	4d\	ti oi-	4f#X\	ti oi-	4dd\	e	4a/	ti oi-
4r	.	4G/	-me	2g\	-me	4.dd\	do-	4b/	-me
4d\	e	4G/	e	.	.	.	.	4b/	e
.	.	.	.	.	.	8cc\	-ue	.	.
=24-	=24-	=24-	=24-	=24-	=24-	=24-	=24-	=24-	=24-
4.d\	do-	4G/	do-	0r	.	4b\	co-	4dd\	do-
.	.	4F#X/	-ue	.	.	4a\	-ſi	4dd\	-ue
8c\	-ue	.	.	.	.	.	.	.	.
*	*	*	*	*	*	*custos:g	*	*	*
!	!	!	!	!	!	!LO:LB:g=original	!	!	!
4B\	co-	4G/	co-	.	.	4g/	ar-	4.dd\	co-
4A\	ſi ar-	4D/	ſi ar-	.	.	8f#X/	-di-	.	.
.	.	.	.	.	.	8f#/	ta Il	8cc\	ſi ar-
*	*	*custos:d	*	*	*	*	*	*custos:b	*
!	!	!LO:LB:g=original	!	!	!	!	!	!LO:LB:g=original	!
4G\	-di-	4d\	-di-	.	.	2.g/	por-	4b/	-di-
8G\	-ra	8d\	-ta	.	.	.	.	8b\	-ta
8A\	Il	8cny/	Il	.	.	.	.	8ee\	Il
4B\	por-	4d\	por-	.	.	.	.	4dd\	por-
4c\	ti oi-	4e\	ti oi-	.	.	4g/	ti oi-	4cc\	ti oi-
=25-	=25-	=25-	=25-	=25-	=25-	=25-	=25-	=25-	=25-
2F/	-me	2fny\	-me	2r	.	2a\	-me	2cc\	-me
2F/	da	2c/	da	2a\	da	2cc\	da	2ff\	da
2.C/	queſ-	2c/	queſ-	2.g\	queſ-	2.cc\	queſ-	2.ee\	queſ-
.	.	4c/	-ti	.	.	.	.	.	.
4C/	-ti	2G/	li-	4g\	-ti	4cc\	-ti	4ee\	-ti
*custos:C	*	*	*	*custos:g	*	*	*	*	*
!LO:LB:g=original	!	!	!	!LO:LB:g=original	!	!	!	!	!
=26-	=26-	=26-	=26-	=26-	=26-	=26-	=26-	=26-	=26-
2C/	li-	.	.	2g\	li-	2cc\	li-	2ee\	li-
.	.	4A/	.	.	.	.	.	.	.
2G\	-di	4B/	.	4g\	-di	2b\	-di	2dd\	-di
.	.	4G/	-di	2g\	fuo-	.	.	.	.
1D	fuo-	1A	fuo-	.	.	1a	fuo-	1dd	fuo-
.	.	.	.	8f#X\	.	.	.	.	.
.	.	.	.	8e\	.	.	.	.	.
.	.	.	.	2f#X\	.	.	.	.	.
=27-	=27-	=27-	=27-	=27-	=27-	=27-	=27-	=27-	=27-
00G	-re.	00G	-re.	00g	-re.	00b	-re.	00dd	-re.
==	==	==	==	==	==	==	==	==	==
*-	*-	*-	*-	*-	*-	*-	*-	*-	*-
!!!system-decoration: [(s1,s2,s3,s4,s5)]
!!!ENC: Mateusz Solarz
!!!END: 2022-07-08
!!!ENC: Natalia Wrzos
!!!END: 2022-07-29
!!!YEC: Copyright 2022 Narodowy Instytut Fryderyka Chopina (https://polishscores.org)
!!!YEM: License CC-BY-4.0 (https://creativecommons.org/licenses/by/4.0)
